icon-themes/sifr_svg/cmd/sc_autopilotmenu.svg

<svg viewBox="0 0 16 16" xmlns="http://www.w3.org/2000/svg"><g fill="#555753"><path d="m2 1v14h10.585938l-2-2h-6.585938v-5.46875l-.2421875-.0605469v-1.9414062l.2421875-.0605469v-2.46875h5v2.46875l.2421875.0605469v.4707031h2.7578125v3.5859375l2 2.0000005v-6.585938l-4-4z"/><path d="m6.5 4-.5 2-2 .5 2 .5.5 2 .5-2 2-.5-2-.5zm2.5 4-1 1 7 7 1-1z"/></g></svg>

<svg xmlns="http://www.w3.org/2000/svg" viewBox="0 0 16 16">
  <path
     style="fill:#555753"
     d="M 2 1 L 2 15 L 12.585938 15 L 10.585938 13 L 4 13 L 4 7.53125 L 3.7578125 7.4707031 L 3.7578125 5.5292969 L 4 5.46875 L 4 3 L 9 3 L 9 5.46875 L 9.2421875 5.5292969 L 9.2421875 6 L 12 6 L 12 9.5859375 L 14 11.585938 L 14 5 L 10 1 L 2 1 z "
     />
  <path
     style="fill:#555753"
     d="M 6.5 4 L 6 6 L 4 6.5 L 6 7 L 6.5 9 L 7 7 L 9 6.5 L 7 6 L 6.5 4 z M 9 8 L 8 9 L 15 16 L 16 15 L 9 8 z "
     />
</svg>
